images/3246443.svg

<?xml version="1.0" encoding="UTF-8"?>
<svg xmlns="http://www.w3.org/2000/svg" xmlns:xlink="http://www.w3.org/1999/xlink" width="300pt" height="300pt" viewBox="0 0 300 300" version="1.1">
<defs>
<g>
<symbol overflow="visible" id="glyph0-0">
<path style="stroke:none;" d="M 0.546875 1.9375 L 0.546875 -7.75 L 6.046875 -7.75 L 6.046875 1.9375 Z M 1.171875 1.328125 L 5.4375 1.328125 L 5.4375 -7.140625 L 1.171875 -7.140625 Z M 1.171875 1.328125 "/>
</symbol>
<symbol overflow="visible" id="glyph0-1">
<path style="stroke:none;" d="M 4.328125 -7.28125 C 3.546875 -7.28125 2.921875 -6.984375 2.453125 -6.390625 C 1.992188 -5.804688 1.765625 -5.007812 1.765625 -4 C 1.765625 -2.988281 1.992188 -2.1875 2.453125 -1.59375 C 2.921875 -1.007812 3.546875 -0.71875 4.328125 -0.71875 C 5.117188 -0.71875 5.742188 -1.007812 6.203125 -1.59375 C 6.660156 -2.1875 6.890625 -2.988281 6.890625 -4 C 6.890625 -5.007812 6.660156 -5.804688 6.203125 -6.390625 C 5.742188 -6.984375 5.117188 -7.28125 4.328125 -7.28125 Z M 4.328125 -8.171875 C 5.453125 -8.171875 6.351562 -7.789062 7.03125 -7.03125 C 7.707031 -6.28125 8.046875 -5.269531 8.046875 -4 C 8.046875 -2.738281 7.707031 -1.726562 7.03125 -0.96875 C 6.351562 -0.21875 5.453125 0.15625 4.328125 0.15625 C 3.203125 0.15625 2.300781 -0.21875 1.625 -0.96875 C 0.957031 -1.71875 0.625 -2.726562 0.625 -4 C 0.625 -5.269531 0.957031 -6.28125 1.625 -7.03125 C 2.300781 -7.789062 3.203125 -8.171875 4.328125 -8.171875 Z M 4.328125 -8.171875 "/>
</symbol>
<symbol overflow="visible" id="glyph0-2">
<path style="stroke:none;" d="M 1.078125 -8.015625 L 2.546875 -8.015625 L 6.09375 -1.3125 L 6.09375 -8.015625 L 7.15625 -8.015625 L 7.15625 0 L 5.6875 0 L 2.125 -6.703125 L 2.125 0 L 1.078125 0 Z M 1.078125 -8.015625 "/>
</symbol>
<symbol overflow="visible" id="glyph0-3">
<path style="stroke:none;" d="M 1.078125 -8.015625 L 2.171875 -8.015625 L 2.171875 -4.734375 L 6.109375 -4.734375 L 6.109375 -8.015625 L 7.1875 -8.015625 L 7.1875 0 L 6.109375 0 L 6.109375 -3.8125 L 2.171875 -3.8125 L 2.171875 0 L 1.078125 0 Z M 1.078125 -8.015625 "/>
</symbol>
</g>
</defs>
<g id="surface49341">
<rect x="0" y="0" width="300" height="300" style="fill:rgb(100%,100%,100%);fill-opacity:1;stroke:none;"/>
<path style="fill:none;stroke-width:1.2;stroke-linecap:butt;stroke-linejoin:miter;stroke:rgb(0%,0%,0%);stroke-opacity:1;stroke-miterlimit:10;" d="M 264.75 127.667969 L 251.40625 127.554688 "/>
<path style="fill:none;stroke-width:1.2;stroke-linecap:butt;stroke-linejoin:miter;stroke:rgb(100%,0%,0%);stroke-opacity:1;stroke-miterlimit:10;" d="M 251.40625 127.554688 L 238.0625 127.445312 "/>
<path style="fill:none;stroke-width:1.2;stroke-linecap:butt;stroke-linejoin:miter;stroke:rgb(100%,0%,0%);stroke-opacity:1;stroke-miterlimit:10;" d="M 238.0625 127.445312 L 231.296875 138.945312 "/>
<path style="fill:none;stroke-width:1.2;stroke-linecap:butt;stroke-linejoin:miter;stroke:rgb(0%,0%,0%);stroke-opacity:1;stroke-miterlimit:10;" d="M 231.296875 138.945312 L 224.527344 150.445312 "/>
<path style=" stroke:none;fill-rule:nonzero;fill:rgb(100%,100%,100%);fill-opacity:1;" d="M 234.0625 120.945312 L 243.0625 120.945312 L 243.0625 133.945312 L 234.0625 133.945312 Z M 234.0625 120.945312 "/>
<g style="fill:rgb(100%,0%,0%);fill-opacity:1;">
  <use xlink:href="#glyph0-1" x="234.0625" y="130.84668"/>
</g>
<path style="fill:none;stroke-width:1.2;stroke-linecap:butt;stroke-linejoin:miter;stroke:rgb(0%,0%,0%);stroke-opacity:1;stroke-miterlimit:10;" d="M 224.527344 150.445312 L 237.679688 173.667969 "/>
<path style="fill:none;stroke-width:1.2;stroke-linecap:butt;stroke-linejoin:miter;stroke:rgb(0%,0%,0%);stroke-opacity:1;stroke-miterlimit:10;" d="M 220.378906 155.859375 L 230.898438 174.4375 "/>
<path style="fill:none;stroke-width:1.2;stroke-linecap:butt;stroke-linejoin:miter;stroke:rgb(0%,0%,0%);stroke-opacity:1;stroke-miterlimit:10;" d="M 197.839844 150.222656 L 224.527344 150.445312 "/>
<path style="fill:none;stroke-width:1.2;stroke-linecap:butt;stroke-linejoin:miter;stroke:rgb(0%,0%,0%);stroke-opacity:1;stroke-miterlimit:10;" d="M 237.679688 173.667969 L 224.144531 196.667969 "/>
<path style="fill:none;stroke-width:1.2;stroke-linecap:butt;stroke-linejoin:miter;stroke:rgb(0%,0%,0%);stroke-opacity:1;stroke-miterlimit:10;" d="M 237.679688 173.667969 L 251.023438 173.777344 "/>
<path style="fill:none;stroke-width:1.2;stroke-linecap:butt;stroke-linejoin:miter;stroke:rgb(100%,0%,0%);stroke-opacity:1;stroke-miterlimit:10;" d="M 251.023438 173.777344 L 264.363281 173.890625 "/>
<path style="fill:none;stroke-width:1.2;stroke-linecap:butt;stroke-linejoin:miter;stroke:rgb(0%,0%,0%);stroke-opacity:1;stroke-miterlimit:10;" d="M 224.144531 196.667969 L 197.457031 196.445312 "/>
<path style="fill:none;stroke-width:1.2;stroke-linecap:butt;stroke-linejoin:miter;stroke:rgb(0%,0%,0%);stroke-opacity:1;stroke-miterlimit:10;" d="M 221.527344 190.363281 L 200.175781 190.1875 "/>
<path style="fill:none;stroke-width:1.2;stroke-linecap:butt;stroke-linejoin:miter;stroke:rgb(0%,0%,0%);stroke-opacity:1;stroke-miterlimit:10;" d="M 197.457031 196.445312 L 184.304688 173.222656 "/>
<path style="fill:none;stroke-width:1.2;stroke-linecap:butt;stroke-linejoin:miter;stroke:rgb(0%,0%,0%);stroke-opacity:1;stroke-miterlimit:10;" d="M 184.304688 173.222656 L 197.839844 150.222656 "/>
<path style="fill:none;stroke-width:1.2;stroke-linecap:butt;stroke-linejoin:miter;stroke:rgb(0%,0%,0%);stroke-opacity:1;stroke-miterlimit:10;" d="M 180.246094 167.738281 L 191.078125 149.335938 "/>
<path style="fill:none;stroke-width:1.2;stroke-linecap:butt;stroke-linejoin:miter;stroke:rgb(0%,0%,0%);stroke-opacity:1;stroke-miterlimit:10;" d="M 157.621094 173 L 184.304688 173.222656 "/>
<path style="fill:none;stroke-width:1.2;stroke-linecap:butt;stroke-linejoin:miter;stroke:rgb(0%,0%,0%);stroke-opacity:1;stroke-miterlimit:10;" d="M 197.839844 150.222656 L 184.691406 127 "/>
<path style="fill:none;stroke-width:1.2;stroke-linecap:butt;stroke-linejoin:miter;stroke:rgb(0%,0%,0%);stroke-opacity:1;stroke-miterlimit:10;" d="M 184.691406 127 L 171.347656 126.890625 "/>
<path style="fill:none;stroke-width:1.2;stroke-linecap:butt;stroke-linejoin:miter;stroke:rgb(0%,0%,100%);stroke-opacity:1;stroke-miterlimit:10;" d="M 171.347656 126.890625 L 158.003906 126.777344 "/>
<path style="fill:none;stroke-width:1.2;stroke-linecap:butt;stroke-linejoin:miter;stroke:rgb(0%,0%,100%);stroke-opacity:1;stroke-miterlimit:10;" d="M 158.003906 126.777344 L 151.429688 115.167969 "/>
<path style="fill:none;stroke-width:1.2;stroke-linecap:butt;stroke-linejoin:miter;stroke:rgb(0%,0%,0%);stroke-opacity:1;stroke-miterlimit:10;" d="M 151.429688 115.167969 L 144.855469 103.554688 "/>
<path style="fill:none;stroke-width:1.2;stroke-linecap:butt;stroke-linejoin:miter;stroke:rgb(0%,0%,0%);stroke-opacity:1;stroke-miterlimit:10;" d="M 144.46875 149.777344 L 151.238281 138.277344 "/>
<path style="fill:none;stroke-width:1.2;stroke-linecap:butt;stroke-linejoin:miter;stroke:rgb(0%,0%,100%);stroke-opacity:1;stroke-miterlimit:10;" d="M 151.238281 138.277344 L 158.003906 126.777344 "/>
<path style=" stroke:none;fill-rule:nonzero;fill:rgb(100%,100%,100%);fill-opacity:1;" d="M 154.003906 120.277344 L 162.003906 120.277344 L 162.003906 133.277344 L 154.003906 133.277344 Z M 154.003906 120.277344 "/>
<g style="fill:rgb(0%,0%,100%);fill-opacity:1;">
  <use xlink:href="#glyph0-2" x="154.003906" y="130.178711"/>
</g>
<path style="fill:none;stroke-width:1.2;stroke-linecap:butt;stroke-linejoin:miter;stroke:rgb(0%,0%,0%);stroke-opacity:1;stroke-miterlimit:10;" d="M 144.855469 103.554688 L 118.167969 103.332031 "/>
<path style="fill:none;stroke-width:1.2;stroke-linecap:butt;stroke-linejoin:miter;stroke:rgb(0%,0%,0%);stroke-opacity:1;stroke-miterlimit:10;" d="M 118.167969 103.332031 L 104.632812 126.332031 "/>
<path style="fill:none;stroke-width:1.2;stroke-linecap:butt;stroke-linejoin:miter;stroke:rgb(0%,0%,0%);stroke-opacity:1;stroke-miterlimit:10;" d="M 104.632812 126.332031 L 77.945312 126.109375 "/>
<path style="fill:none;stroke-width:1.2;stroke-linecap:butt;stroke-linejoin:miter;stroke:rgb(0%,0%,0%);stroke-opacity:1;stroke-miterlimit:10;" d="M 101.910156 132.589844 L 80.5625 132.414062 "/>
<path style="fill:none;stroke-width:1.2;stroke-linecap:butt;stroke-linejoin:miter;stroke:rgb(0%,0%,0%);stroke-opacity:1;stroke-miterlimit:10;" d="M 117.78125 149.554688 L 104.632812 126.332031 "/>
<path style="fill:none;stroke-width:1.2;stroke-linecap:butt;stroke-linejoin:miter;stroke:rgb(0%,0%,0%);stroke-opacity:1;stroke-miterlimit:10;" d="M 77.945312 126.109375 L 64.410156 149.109375 "/>
<path style="fill:none;stroke-width:1.2;stroke-linecap:butt;stroke-linejoin:miter;stroke:rgb(0%,0%,0%);stroke-opacity:1;stroke-miterlimit:10;" d="M 64.410156 149.109375 L 77.5625 172.332031 "/>
<path style="fill:none;stroke-width:1.2;stroke-linecap:butt;stroke-linejoin:miter;stroke:rgb(0%,0%,0%);stroke-opacity:1;stroke-miterlimit:10;" d="M 60.261719 154.527344 L 70.78125 173.105469 "/>
<path style="fill:none;stroke-width:1.2;stroke-linecap:butt;stroke-linejoin:miter;stroke:rgb(100%,0%,0%);stroke-opacity:1;stroke-miterlimit:10;" d="M 38.261719 154.441406 L 51.335938 151.777344 "/>
<path style="fill:none;stroke-width:1.2;stroke-linecap:butt;stroke-linejoin:miter;stroke:rgb(0%,0%,0%);stroke-opacity:1;stroke-miterlimit:10;" d="M 51.335938 151.777344 L 64.410156 149.109375 "/>
<path style="fill:none;stroke-width:1.2;stroke-linecap:butt;stroke-linejoin:miter;stroke:rgb(0%,0%,0%);stroke-opacity:1;stroke-miterlimit:10;" d="M 77.5625 172.332031 L 104.246094 172.554688 "/>
<path style="fill:none;stroke-width:1.2;stroke-linecap:butt;stroke-linejoin:miter;stroke:rgb(0%,0%,0%);stroke-opacity:1;stroke-miterlimit:10;" d="M 77.5625 172.332031 L 68.550781 182.175781 "/>
<path style="fill:none;stroke-width:1.2;stroke-linecap:butt;stroke-linejoin:miter;stroke:rgb(100%,0%,0%);stroke-opacity:1;stroke-miterlimit:10;" d="M 68.550781 182.175781 L 59.539062 192.015625 "/>
<path style="fill:none;stroke-width:1.2;stroke-linecap:butt;stroke-linejoin:miter;stroke:rgb(0%,0%,0%);stroke-opacity:1;stroke-miterlimit:10;" d="M 104.246094 172.554688 L 117.78125 149.554688 "/>
<path style="fill:none;stroke-width:1.2;stroke-linecap:butt;stroke-linejoin:miter;stroke:rgb(0%,0%,0%);stroke-opacity:1;stroke-miterlimit:10;" d="M 100.1875 167.070312 L 111.015625 148.671875 "/>
<path style=" stroke:none;fill-rule:nonzero;fill:rgb(0%,0%,0%);fill-opacity:1;" d="M 144.46875 149.777344 L 117.820312 144.847656 L 117.742188 154.265625 Z M 144.46875 149.777344 "/>
<path style="fill:none;stroke-width:1.2;stroke-linecap:butt;stroke-linejoin:miter;stroke:rgb(0%,0%,0%);stroke-opacity:1;stroke-miterlimit:10;" d="M 144.46875 149.777344 L 157.621094 173 "/>
<path style="fill:none;stroke-width:1.2;stroke-linecap:butt;stroke-linejoin:miter;stroke:rgb(100%,0%,0%);stroke-opacity:1;stroke-miterlimit:10;" d="M 59.539062 192.015625 L 47.394531 186.488281 "/>
<path style="fill:none;stroke-width:1.2;stroke-linecap:butt;stroke-linejoin:miter;stroke:rgb(0%,0%,0%);stroke-opacity:1;stroke-miterlimit:10;" d="M 47.394531 186.488281 L 35.25 180.960938 "/>
<path style=" stroke:none;fill-rule:nonzero;fill:rgb(100%,100%,100%);fill-opacity:1;" d="M 55.539062 185.515625 L 64.539062 185.515625 L 64.539062 198.515625 L 55.539062 198.515625 Z M 55.539062 185.515625 "/>
<g style="fill:rgb(100%,0%,0%);fill-opacity:1;">
  <use xlink:href="#glyph0-1" x="55.539062" y="195.416992"/>
</g>
<path style="fill:none;stroke-width:1.2;stroke-linecap:butt;stroke-linejoin:miter;stroke:rgb(0%,0%,0%);stroke-opacity:1;stroke-miterlimit:10;" d="M 35.25 180.960938 L 36.753906 167.699219 "/>
<path style="fill:none;stroke-width:1.2;stroke-linecap:butt;stroke-linejoin:miter;stroke:rgb(100%,0%,0%);stroke-opacity:1;stroke-miterlimit:10;" d="M 36.753906 167.699219 L 38.261719 154.441406 "/>
<path style=" stroke:none;fill-rule:nonzero;fill:rgb(100%,100%,100%);fill-opacity:1;" d="M 34.261719 147.941406 L 43.261719 147.941406 L 43.261719 160.941406 L 34.261719 160.941406 Z M 34.261719 147.941406 "/>
<g style="fill:rgb(100%,0%,0%);fill-opacity:1;">
  <use xlink:href="#glyph0-1" x="34.261719" y="157.842773"/>
</g>
<path style=" stroke:none;fill-rule:nonzero;fill:rgb(100%,100%,100%);fill-opacity:1;" d="M 256.363281 167.390625 L 273.363281 167.390625 L 273.363281 180.390625 L 256.363281 180.390625 Z M 256.363281 167.390625 "/>
<g style="fill:rgb(100%,0%,0%);fill-opacity:1;">
  <use xlink:href="#glyph0-1" x="256.363281" y="177.291992"/>
  <use xlink:href="#glyph0-3" x="264.763672" y="177.291992"/>
</g>
</g>
</svg>

<svg xmlns="http://www.w3.org/2000/svg" xmlns:xlink="http://www.w3.org/1999/xlink" width="300pt" height="300pt" viewBox="0 0 300 300"><defs><symbol overflow="visible"><path d="M.547 1.938V-7.75h5.5v9.688zm.625-.61h4.266v-8.47H1.171zm0 0"/></symbol><symbol overflow="visible" id="a"><path d="M4.328-7.28c-.78 0-1.406.296-1.875.89-.46.585-.687 1.382-.687 2.39 0 1.012.226 1.813.687 2.406.47.586 1.094.875 1.875.875.79 0 1.414-.288 1.875-.874.457-.593.688-1.394.688-2.406 0-1.008-.23-1.805-.687-2.39-.46-.594-1.086-.89-1.875-.89zm0-.892c1.125 0 2.024.383 2.703 1.14C7.708-6.28 8.048-5.27 8.048-4c0 1.262-.34 2.273-1.016 3.03C6.353-.22 5.454.157 4.33.157S2.3-.22 1.625-.97c-.668-.75-1-1.757-1-3.03 0-1.27.332-2.28 1-3.03.676-.76 1.578-1.142 2.703-1.142zm0 0"/></symbol><symbol overflow="visible" id="b"><path d="M1.078-8.016h1.47l3.546 6.704v-6.704h1.062V0H5.688L2.124-6.703V0H1.078zm0 0"/></symbol><symbol overflow="visible" id="c"><path d="M1.078-8.016h1.094v3.282H6.11v-3.282h1.077V0H6.11v-3.813H2.17V0H1.078zm0 0"/></symbol></defs><g><path fill="#fff" d="M0 0h300v300H0z"/><path d="M264.75 127.668l-13.344-.113" stroke-width="1.2" stroke="#000" stroke-miterlimit="10" fill="none"/><path d="M251.406 127.555l-13.344-.11M238.063 127.445l-6.766 11.5" stroke-width="1.2" stroke="#f00" stroke-miterlimit="10" fill="none"/><path d="M231.297 138.945l-6.77 11.5" stroke-width="1.2" stroke="#000" stroke-miterlimit="10" fill="none"/><path d="M234.063 120.945h9v13h-9zm0 0" fill="#fff"/><use xlink:href="#a" x="234.063" y="130.847" fill="#f00"/><path d="M224.527 150.445l13.153 23.223M220.38 155.86l10.518 18.577M197.84 150.223l26.687.222M237.68 173.668l-13.535 23M237.68 173.668l13.343.11" stroke-width="1.2" stroke="#000" stroke-miterlimit="10" fill="none"/><path d="M251.023 173.777l13.34.114" stroke-width="1.2" stroke="#f00" stroke-miterlimit="10" fill="none"/><path d="M224.145 196.668l-26.688-.223M221.527 190.363l-21.35-.175M197.457 196.445l-13.152-23.222M184.305 173.223l13.535-23M180.246 167.738l10.832-18.402M157.62 173l26.685.223M197.84 150.223L184.69 127M184.69 127l-13.342-.11" stroke-width="1.2" stroke="#000" stroke-miterlimit="10" fill="none"/><path d="M171.348 126.89l-13.344-.113M158.004 126.777l-6.574-11.61" stroke-width="1.2" stroke="#00f" stroke-miterlimit="10" fill="none"/><path d="M151.43 115.168l-6.575-11.613M144.47 149.777l6.768-11.5" stroke-width="1.2" stroke="#000" stroke-miterlimit="10" fill="none"/><path d="M151.238 138.277l6.766-11.5" stroke-width="1.2" stroke="#00f" stroke-miterlimit="10" fill="none"/><path d="M154.004 120.277h8v13h-8zm0 0" fill="#fff"/><use xlink:href="#b" x="154.004" y="130.179" fill="#00f"/><path d="M144.855 103.555l-26.687-.223M118.168 103.332l-13.535 23M104.633 126.332l-26.688-.223M101.91 132.59l-21.347-.176M117.78 149.555l-13.147-23.223M77.945 126.11l-13.535 23M64.41 149.11l13.153 23.222M60.262 154.527l10.52 18.578" stroke-width="1.2" stroke="#000" stroke-miterlimit="10" fill="none"/><path d="M38.262 154.44l13.074-2.663" stroke-width="1.2" stroke="#f00" stroke-miterlimit="10" fill="none"/><path d="M51.336 151.777l13.074-2.668M77.563 172.332l26.683.223M77.563 172.332l-9.012 9.844" stroke-width="1.2" stroke="#000" stroke-miterlimit="10" fill="none"/><path d="M68.55 182.176l-9.01 9.84" stroke-width="1.2" stroke="#f00" stroke-miterlimit="10" fill="none"/><path d="M104.246 172.555l13.535-23M100.188 167.07l10.828-18.398" stroke-width="1.2" stroke="#000" stroke-miterlimit="10" fill="none"/><path d="M144.47 149.777l-26.65-4.93-.078 9.42zm0 0"/><path d="M144.47 149.777L157.62 173" stroke-width="1.2" stroke="#000" stroke-miterlimit="10" fill="none"/><path d="M59.54 192.016l-12.145-5.528" stroke-width="1.2" stroke="#f00" stroke-miterlimit="10" fill="none"/><path d="M47.395 186.488L35.25 180.96" stroke-width="1.2" stroke="#000" stroke-miterlimit="10" fill="none"/><path d="M55.54 185.516h9v13h-9zm0 0" fill="#fff"/><use xlink:href="#a" x="55.539" y="195.417" fill="#f00"/><path d="M35.25 180.96l1.504-13.26" stroke-width="1.2" stroke="#000" stroke-miterlimit="10" fill="none"/><path d="M36.754 167.7l1.508-13.26" stroke-width="1.2" stroke="#f00" stroke-miterlimit="10" fill="none"/><path d="M34.262 147.94h9v13h-9zm0 0" fill="#fff"/><use xlink:href="#a" x="34.262" y="157.843" fill="#f00"/><path d="M256.363 167.39h17v13h-17zm0 0" fill="#fff"/><g fill="#f00"><use xlink:href="#a" x="256.363" y="177.292"/><use xlink:href="#c" x="264.764" y="177.292"/></g></g></svg>
